X:1
T:Title
%%score 1 { ( 2 4 6 ) | ( 3 5 ) }
L:1/8
M:3/4
K:A
V:1 treble nm="Choir Aahs"
V:2 treble nm="Grand Piano"
V:4 treble 
V:6 treble 
V:3 bass 
V:5 bass 
V:1
 z6[Q:1/4=88] | z6 | z6 | z6 |[M:5/8] z5 |[M:1/8] z |[M:3/4] z6 | z6 | z6 |[M:5/8] z5 |[M:1/8] E | %11
[M:3/4] e6- | e4 c2 | e6- | e4 z E | e6- | e4- ec | f>e dc BA |[M:7/8] e- e3 e3 | %19
[M:5/8] [Aa]-[Aa]- [Aa]3 |] %20
V:2
 z2 z2 z [CE] | [CA]>[DB] [Ec]3 [Ec] | [Ed]>[EB] [Ee]3 [Ec] | e>B d3 G |[M:5/8] c>B E3 | %5
[M:1/8] [CE] |[M:3/4] [EA]>B c3 c | d>B e3 e | [A^d]>[Ac] [GB][FA] [^DF]>[DB] | %9
[M:5/8] [G,E]-[G,E]- [G,E]3 |[M:1/8] z |[M:3/4] z2 [Bd]4 | [Bd]>d z2 z c | [Ac]>B z2 z c | %14
 [Bd]>^d [ce]3 E | e>e d3 E | d>d z2 Ac | f>e [Fd][Fc] [B,FB][CEA] |[M:7/8] [EAc]- [EAc]3 [DGB]3 | %19
[M:5/8] [CA]-[CA]- [CA]3 |] %20
V:3
 z2 z2 z [A,,A,] | [A,,A,]>[A,,A,] [A,,A,]3 [A,,A,] | [B,,G,]>[B,,G,] [C,A,]3 [A,,A,] | %3
 [E,G,E]>[E,G,E] [E,G,E]3 [E,B,E] |[M:5/8] [E,A,E]>[D,G,E] [C,A,]3 |[M:1/8] [A,,A,] | %6
[M:3/4] [C,A,]>[E,G,E][K:treble] [A,E]3 [A,E] | [G,B,E]>[G,B,E] [A,CE]3 [A,CA] | %8
 [F,B,]>[^D,B,] [E,B,][B,,B,] [B,,A,]>[B,,A,] |[M:5/8] E,-E,- E,3 |[M:1/8] E | %11
[M:3/4] z z/[K:treble] c/[K:bass] [E,G,D]2 z E | z z/[K:treble] B/[K:bass] [E,A,C]2 z A | %13
 z z/ G/ [E,G,D]2 z A | z z/[K:treble] =c/ [E,A,C]3[K:bass] [A,C] | [A,CE]>[A,CE] [G,B,E]3 [E,G,] | %16
 [E,G,E]>[K:treble][G,B,E] E2 z [A,E=G] | [A,CF]>[F,A,F][K:bass] [B,,B,][C,A,] D,E, | %18
[M:7/8] E,- E,3 E,3 |[M:5/8] A,-A,- A,3 |] %20
V:4
 x6 | x6 | x6 | x6 |[M:5/8] x5 |[M:1/8] x |[M:3/4] x6 | x6 | x6 |[M:5/8] x5 |[M:1/8] x | %11
[M:3/4] [ce]>e z2 [G,D]2 | z2 [Ac]4 | z2 [GB]4 | x6 | x6 | z2 c4 | x6 |[M:7/8] x7 |[M:5/8] x5 |] %20
V:5
 x6 | x6 | x6 | x6 |[M:5/8] x5 |[M:1/8] x |[M:3/4] x2[K:treble] x4 | x6 | x6 |[M:5/8] x5 | %10
[M:1/8] x |[M:3/4] E,,2[K:treble][K:bass] z2 E,2 | A,,2[K:treble][K:bass] z2 [E,A,]2 | %13
 E,,2 z2 [E,G,]2 | A,,2[K:treble] z2 z2[K:bass] | x6 | z2[K:treble] A,4 | x2[K:bass] x4 | %18
[M:7/8] x7 |[M:5/8] x5 |] %20
V:6
 x6 | x6 | x6 | x6 |[M:5/8] x5 |[M:1/8] x |[M:3/4] x6 | x6 | x6 |[M:5/8] x5 |[M:1/8] x | %11
[M:3/4] x6 | z2 z2 C2 | z2 z2 D2 | x6 | x6 | x6 | x6 |[M:7/8] x7 |[M:5/8] x5 |] %20

